_includes/icons/ios-bank-euro.svg

<svg fill="#666" height="50" viewBox="0 0 50 50" width="50" xmlns="http://www.w3.org/2000/svg"><path d="m9 4c-2.7495161 0-5 2.2504839-5 5v32c0 2.749516 2.2504839 5 5 5h32c2.749516 0 5-2.250484 5-5v-32c0-2.7495161-2.250484-5-5-5zm0 2h32c1.668484 0 3 1.3315161 3 3v32c0 1.668484-1.331516 3-3 3h-32c-1.6684839 0-3-1.331516-3-3v-32c0-1.6684839 1.3315161-3 3-3zm22.714844 6c-7.074 0-11.844 3.102-13.25 9h-4.464844v2h4.113281l-.042969.271484c-.052999.558-.070312 1.134516-.070312 1.728516 0 .611.018844 1.205672.089844 1.763672l.033203.236328h-4.123047v2h4.453125c1.406 5.913 6.184719 9 13.261719 9 .839 0 1.767156-.070672 2.285156-.138672v-2.183594c-.571.069-1.302156.123047-2.285156.123047-5.487 0-9.311344-2.319781-10.652344-6.800781h9.9375v-2h-10.365234l-.044922-.234375c-.054-.559-.087891-1.151672-.087891-1.763672 0-.611.034891-1.171469.087891-1.730469l.054687-.271484h10.355469v-2h-9.90625c1.321-4.479 5.121094-6.779297 10.621094-6.779297.965 0 1.678843.016516 2.214844.103516v-2.183594c-.5-.071-1.410844-.140625-2.214844-.140625z"/></svg>

<svg xmlns="http://www.w3.org/2000/svg" viewBox="0 0 50 50" width="50" height="50" fill="#666"><path style="line-height:normal;text-indent:0;text-align:start;text-decoration-line:none;text-decoration-style:solid;text-decoration-color:#000;text-transform:none;block-progression:tb;isolation:auto;mix-blend-mode:normal" d="M 9 4 C 6.2504839 4 4 6.2504839 4 9 L 4 41 C 4 43.749516 6.2504839 46 9 46 L 41 46 C 43.749516 46 46 43.749516 46 41 L 46 9 C 46 6.2504839 43.749516 4 41 4 L 9 4 z M 9 6 L 41 6 C 42.668484 6 44 7.3315161 44 9 L 44 41 C 44 42.668484 42.668484 44 41 44 L 9 44 C 7.3315161 44 6 42.668484 6 41 L 6 9 C 6 7.3315161 7.3315161 6 9 6 z M 31.714844 12 C 24.640844 12 19.870844 15.102 18.464844 21 L 14 21 L 14 23 L 18.113281 23 L 18.070312 23.271484 C 18.017313 23.829484 18 24.406 18 25 C 18 25.611 18.018844 26.205672 18.089844 26.763672 L 18.123047 27 L 14 27 L 14 29 L 18.453125 29 C 19.859125 34.913 24.637844 38 31.714844 38 C 32.553844 38 33.482 37.929328 34 37.861328 L 34 35.677734 C 33.429 35.746734 32.697844 35.800781 31.714844 35.800781 C 26.227844 35.800781 22.4035 33.481 21.0625 29 L 31 29 L 31 27 L 20.634766 27 L 20.589844 26.765625 C 20.535844 26.206625 20.501953 25.613953 20.501953 25.001953 C 20.501953 24.390953 20.536844 23.830484 20.589844 23.271484 L 20.644531 23 L 31 23 L 31 21 L 21.09375 21 C 22.41475 16.521 26.214844 14.220703 31.714844 14.220703 C 32.679844 14.220703 33.393687 14.237219 33.929688 14.324219 L 33.929688 12.140625 C 33.429688 12.069625 32.518844 12 31.714844 12 z"/></svg>
